images/picture-size.svg

<?xml version="1.0" encoding="utf-8"?>
<!-- Generated by IcoMoon.io -->
<!DOCTYPE svg PUBLIC "-//W3C//DTD SVG 1.1//EN" "http://www.w3.org/Graphics/SVG/1.1/DTD/svg11.dtd">
<svg version="1.1" xmlns="http://www.w3.org/2000/svg" xmlns:xlink="http://www.w3.org/1999/xlink" width="32" height="32" viewBox="0 0 32 32">
<g>
</g>
	<path d="M23.53 3.765h-14.588c-1.040 0-1.882 0.843-1.882 1.882v12.003h0.032c-0.019 0.075-0.032 0.152-0.032 0.233v9.411c0 0.52 0.422 0.941 0.941 0.941h6.588c0.52 0 0.941-0.422 0.941-0.941v-9.411c0-0.52-0.422-0.941-0.941-0.941h-5.176v-10.353c0-0.26 0.21-0.471 0.471-0.471h12.706c0.26 0 0.471 0.21 0.471 0.471v18.823c0 0.26-0.211 0.471-0.471 0.471h-3.44v2.353h4.382c1.040 0 1.882-0.843 1.882-1.882v-20.706c-0-1.040-0.843-1.882-1.883-1.882z" fill="#000000"></path>
</svg>

<?xml version="1.0" encoding="UTF-8" standalone="no"?>
<!-- Created with Inkscape (http://www.inkscape.org/) -->

<svg
   xmlns:dc="http://purl.org/dc/elements/1.1/"
   xmlns:cc="http://creativecommons.org/ns#"
   xmlns:rdf="http://www.w3.org/1999/02/22-rdf-syntax-ns#"
   xmlns:svg="http://www.w3.org/2000/svg"
   xmlns="http://www.w3.org/2000/svg"
   xmlns:inkscape="http://www.inkscape.org/namespaces/inkscape"
   version="1.1"
   width="32"
   height="32"
   viewBox="0 0 32 32"
   id="svg2">
  <metadata
     id="metadata10">
    <rdf:RDF>
      <cc:Work
         rdf:about="">
        <dc:format>image/svg+xml</dc:format>
        <dc:type
           rdf:resource="http://purl.org/dc/dcmitype/StillImage" />
      </cc:Work>
    </rdf:RDF>
  </metadata>
  <defs
     id="defs8" />
  <path
     d="M 23.53,3.765 H 8.942 C 7.902,3.765 7.06,4.608 7.06,5.647 V 17.65 H 7.092 C 7.072,17.725 7.06,17.802 7.06,17.883 v 9.41 c 0,0.52 0.422,0.942 0.94,0.942 h 6.59 c 0.52,0 0.94,-0.422 0.94,-0.94 v -9.412 c 0,-0.52 -0.422,-0.94 -0.94,-0.94 H 9.412 V 6.588 c 0,-0.26 0.21,-0.472 0.47,-0.472 H 22.59 c 0.26,0 0.47,0.21 0.47,0.47 V 25.41 c 0,0.26 -0.21,0.47 -0.47,0.47 h -3.44 v 2.354 h 4.382 c 1.04,0 1.882,-0.843 1.882,-1.882 V 5.648 c 0,-1.04 -0.843,-1.882 -1.883,-1.882 z"
     inkscape:connector-curvature="0"
     id="path4" />
</svg>
